packages/swarm-icons/src/icons/line/Star.svg

<svg xmlns="http://www.w3.org/2000/svg" width="24" height="24" viewBox="0 0 24 24">
  <path fill="#757575" d="M5.45808196,22.0041777 L6.70747713,14.7196449 L1.41495427,9.56071016 L8.72904098,8.49791115 L12,1.87022427 L15.270959,8.49791115 L22.5850457,9.56071016 L17.2925229,14.7196449 L18.541918,22.0041777 L12,18.5648879 L5.45808196,22.0041777 Z M6.78621299,20.1761622 L12,17.4351121 L17.213787,20.1761622 L16.2180423,14.370525 L20.4360846,10.25895 L14.6068935,9.41191891 L12,4.12977573 L9.3931065,9.41191891 L3.56391541,10.25895 L7.7819577,14.370525 L6.78621299,20.1761622 Z"/>
</svg>

<svg xmlns="http://www.w3.org/2000/svg" width="24" height="24"><path fill="#757575" d="M5.458 22.004l1.25-7.284-5.293-5.16 7.314-1.062L12 1.87l3.271 6.628 7.314 1.063-5.292 5.159 1.249 7.284L12 18.564l-6.542 3.44zm1.328-1.828L12 17.436l5.214 2.74-.996-5.805 4.218-4.112-5.83-.847L12 4.13 9.393 9.412l-5.83.847 4.219 4.112-.996 5.805z"/></svg>
